assets/images/icons/key-info-06.svg

<svg width="32" height="32" viewBox="0 0 32 32" fill="none" xmlns="http://www.w3.org/2000/svg">
<g clip-path="url(#clip0_211_3678)">
<path opacity="0.1" d="M0.223155 23.1618C-0.0589054 20.752 -0.098086 18.3874 0.248062 16.248C0.673696 13.6174 1.78493 10.6909 2.99894 8.07362C5.37163 2.95839 9.61911 1.16885 14.7912 0.362065C22.0007 -0.762522 31.9372 0.362091 32 9.08714C31.6383 12.2073 29.2517 20.8815 21.1951 21.5434C18.5313 21.7622 17.5348 24.4378 16.3612 27.5006C13.2729 35.5602 1.25575 31.9835 0.223155 23.1618Z" fill="#7FB51F"/>
<g clip-path="url(#clip1_211_3678)">
<path d="M25.735 9.43881L24.2217 10.3159V8.56176C24.2217 7.36451 22.3655 7.36451 22.3655 8.56176V11.3878L20.9645 12.1953C20.5325 12.4412 20.004 12.4412 19.5724 12.1953L18.8763 11.7915L17.9482 13.3972L18.6443 13.8009C19.0759 14.0515 19.3404 14.5109 19.3404 15.0079V16.6135C19.3404 17.1096 19.0759 17.5736 18.6443 17.82L17.2521 18.6228C16.8201 18.8734 16.2916 18.8734 15.86 18.6228L15.1639 18.2237L14.2358 19.8294L14.9319 20.2331C15.3635 20.479 15.628 20.9384 15.628 21.4396V23.0545L13.182 24.4652C12.1476 25.0638 13.0757 26.6741 14.1101 26.0708L15.628 25.1984V26.9479C15.628 28.1451 17.4842 28.1451 17.4842 26.9479V25.1984L19.0016 26.0708C20.0364 26.6695 20.9645 25.0638 19.9297 24.4652L17.4842 23.054V21.4391C17.4842 20.938 17.7482 20.479 18.1802 20.2326L19.5724 19.4298C20.004 19.1792 20.5325 19.1792 20.9645 19.4298L22.366 20.2373V23.0587C22.366 24.2559 24.2222 24.2559 24.2222 23.0587V21.3092L25.7354 22.1816C26.7744 22.7803 27.7025 21.1746 26.6635 20.576L25.1503 19.699L26.6635 18.8265C27.7025 18.2279 26.7744 16.6177 25.7354 17.2163L23.2941 18.627L21.8926 17.8196C21.4606 17.5736 21.1966 17.1096 21.1966 16.613V15.0074C21.1966 14.5109 21.4606 14.051 21.8926 13.8004L23.2941 12.993L25.7354 14.4037C26.7744 15.0023 27.7025 13.3967 26.6635 12.7981L25.1503 11.921L26.6635 11.044C27.7025 10.4458 26.7744 8.84019 25.735 9.43881Z" fill="#7FB51F"/>
<path d="M19.9423 6.75675L20.3321 5.29499C20.643 4.13486 18.8522 3.65736 18.5413 4.81238L18.1464 6.27413C17.8401 7.43426 19.6314 7.91223 19.9423 6.75675Z" fill="#7FB51F"/>
<path d="M7.01804 17.4067L5.55628 17.7965C4.4008 18.1074 4.87877 19.8987 6.03425 19.5877L7.50065 19.1975C8.65614 18.887 8.17353 17.0958 7.01804 17.4067Z" fill="#7FB51F"/>
<path d="M6.03425 12.0329C4.87877 11.722 4.4008 13.5132 5.55628 13.8242L7.01804 14.2191C8.17306 14.5253 8.65567 12.7341 7.50065 12.4232L6.03425 12.0329Z" fill="#7FB51F"/>
<path d="M9.09253 9.66167C9.94174 10.5109 11.255 9.19762 10.4058 8.34841L9.33337 7.2811C8.48926 6.43189 7.176 7.74515 8.02011 8.59436L9.09253 9.66167Z" fill="#7FB51F"/>
<path d="M9.09401 21.9591L8.02206 23.031C7.17795 23.8751 8.49121 25.1884 9.33532 24.3443L10.4077 23.2719C11.2565 22.4231 9.94323 21.1099 9.09401 21.9591Z" fill="#7FB51F"/>
<path d="M14.9593 6.27413L14.5695 4.81238C14.2586 3.65736 12.4674 4.13486 12.7783 5.29499L13.1685 6.75675C13.479 7.91223 15.2702 7.43426 14.9593 6.27413Z" fill="#7FB51F"/>
<path d="M10.6177 12.418C8.97494 15.3183 9.73134 19.17 12.3671 21.2118L19.1423 9.48059C16.0331 8.20909 12.279 9.49451 10.6177 12.418Z" fill="#7FB51F"/>
</g>
</g>
<defs>
<clipPath id="clip0_211_3678">
<rect width="32" height="32" fill="white"/>
</clipPath>
<clipPath id="clip1_211_3678">
<rect width="24" height="24" fill="white" transform="translate(4 4)"/>
</clipPath>
</defs>
</svg>

<svg xmlns="http://www.w3.org/2000/svg" width="32" height="32" fill="none"><g fill="#7FB51F" clip-path="url(#a)"><path d="M.223 23.162c-.282-2.41-.321-4.775.025-6.914.426-2.63 1.537-5.557 2.75-8.174C5.373 2.958 9.62 1.169 14.792.362 22.001-.763 31.937.362 32 9.087c-.362 3.12-2.748 11.795-10.805 12.456-2.664.22-3.66 2.895-4.834 5.958-3.088 8.06-15.105 4.482-16.138-4.34" opacity=".1"/><g clip-path="url(#b)"><path d="m25.735 9.439-1.513.877V8.562c0-1.197-1.857-1.197-1.857 0v2.826l-1.4.807a1.41 1.41 0 0 1-1.393 0l-.696-.404-.928 1.606.696.404c.432.25.696.71.696 1.207v1.605c0 .497-.264.96-.696 1.207l-1.392.803c-.432.25-.96.25-1.392 0l-.696-.4-.928 1.606.696.404c.431.246.696.705.696 1.207v1.614l-2.446 1.411c-1.034.599-.106 2.21.928 1.606l1.518-.873v1.75c0 1.197 1.856 1.197 1.856 0v-1.75l1.518.873c1.034.598 1.963-1.007.928-1.606l-2.446-1.411v-1.615c0-.501.264-.96.696-1.206l1.392-.803c.432-.25.96-.25 1.393 0l1.401.807v2.822c0 1.197 1.856 1.197 1.856 0v-1.75l1.513.873c1.04.598 1.968-1.007.928-1.606l-1.513-.877 1.514-.873c1.038-.598.11-2.208-.929-1.61l-2.44 1.411-1.402-.807a1.39 1.39 0 0 1-.696-1.207v-1.606c0-.496.264-.956.696-1.207l1.401-.807 2.441 1.41c1.04.6 1.968-1.006.928-1.605l-1.513-.877 1.514-.877c1.038-.598.11-2.204-.929-1.605m-5.793-2.682.39-1.462c.311-1.16-1.48-1.638-1.79-.483l-.396 1.462c-.306 1.16 1.485 1.638 1.796.483M7.018 17.407l-1.462.39c-1.155.31-.677 2.102.478 1.79l1.467-.39c1.155-.31.673-2.101-.483-1.79m-.984-5.374c-1.155-.311-1.633 1.48-.478 1.791l1.462.395c1.155.306 1.638-1.485.483-1.796zm3.059-2.371c.849.849 2.162-.464 1.313-1.314L9.333 7.281c-.844-.85-2.157.464-1.313 1.313zm.001 12.298-1.072 1.07c-.844.844.47 2.157 1.313 1.313l1.073-1.072c.849-.849-.465-2.162-1.314-1.313M14.96 6.274l-.39-1.462c-.311-1.155-2.103-.677-1.792.483l.39 1.462c.311 1.155 2.102.677 1.791-.483m-4.341 6.144c-1.643 2.9-.887 6.752 1.75 8.794L19.141 9.48c-3.109-1.272-6.863.014-8.524 2.937"/></g></g><defs><clipPath id="a"><path fill="#fff" d="M0 0h32v32H0z"/></clipPath><clipPath id="b"><path fill="#fff" d="M4 4h24v24H4z"/></clipPath></defs></svg>
